X:1
T:J. S. Bach
T:From Clavier-Büchlein vor Wilhelm Friedemann Bach
T:BWV 926 Little Prelude in D minor (A = 415 Hz)
%%score { ( 1 3 4 ) | 2 }
L:1/8
Q:1/4=184
M:3/4
K:F
V:1 treble nm="Harp"
V:3 treble 
V:4 treble 
V:2 bass 
V:1
"^Presto" DA FD AF | DA FD AF | DB GD BG | DB GD BG | ^CG EC GE | ^C^A GE =AG | FD FA FA | %7
 dA df df | =bf ed c=B | A^G ^FE d=B | c/4B/4c3/2 z4 | c/4B/4c3/2 z4 | a_e dc BA | G^F ED cA | %14
 B/4A/4B/d BG g2 | z d cB B/4A/4B/4A/4G | Ac AF f2 | z c BA A/4G/4A/4G/4F | GB AG FE | FD FA dG | %20
 ^c/4B/4c/e cA ec | Ae ^cA BA | Ge ^cG ec | Ge ^cG AG | Fd BF dB | Fd BF d^A | ^Fc AF cA | %27
 ^Fc AF cA | BG ^FG DG | BG DB GD | _EG ^FG ^AG | _EB GE BG | ^CB GC BG | ^CB GC AG | FA FD AF | %35
 DA FD ^CD | EG EB, GE | B,G E^C A,G | F/D/C/B,/[I:staff +1] A,/G,/F,/E,/ F,/A,/D,/F,/ | %39
 A,,/D,/C,/B,,/ A,,/G,,/F,,/E,,/ D,,/F,,/A,,/D,/ | F,/A,/D,/F,/ A,/[I:staff -1]D/F/A/ D/F/A/d/ | %41
 f/a/f/d/ f/d/=B/d/ ^G/B/A/G/ | !arpeggio!g3 a f2- | fe f/4e/4f/4e/4f/4e/4f/4e/4 f/4e/4f/4e/4 d | %44
 dc Ad BG | cA ^F^A GE | A^F DG E^C | !fermata!^F6 |] %48
V:2
 D,/4^C,/4D,3/2 z4 | D,,2 z4 | D,/4^C,/4D,3/2 z4 | D,,2 z4 | D,/4^C,/4D,3/2 z4 | D,,2 z4 | %6
 D,A,, D,F, D,F, | A,F, A,D A,D | ^G,2 z4 | E,2 ^G,2 E,2 | A,E CA, E^B, | ^^F,^D CG, _EC | %12
 ^F,2 z4 | D,2 ^F,2 D,2 | G,/4F,/4G,3/2 z2 z F, | F,/4E,/4F,/4E,/4F,/4E,/4F,/4E,/4 z4 | %16
 G,/4F,/4G,/4F,/4G,/4F,/4G,/4F,/4 z z2 E, | D,2 z F, E,D, | E,D, ^C,E, D,C, | D,2 C,2 B,,2 | %20
 A,,2 A,2 A,,2 | A,,2 A,2 A,,2 | A,,2 A,2 A,,2 | A,,2 A,2 A,,2 | B,,2 z4 | B,,2 B,2 B,,2 | %26
 A,,2 z4 | A,,2 D,2 D,,2 | G,,2 z4 | G,,2 G,2 G,,2 | G,,2 z4 | G,,2 G,2 G,,2 | A,,2 z4 | %33
 A,,2 A,2 A,,2 | A,,2 z4 | A,,2 A,2 A,,2 | ^C,,2 z4 | ^C,,2 ^C,2 C,,2 | D,,2 z4 | z6 | z6 | z6 | %42
 ^C,E, C,A,, D,B,, | G,,G, A,G, A,A,, | D,2 D2 D,2 | D,2 z4 | D,,2 D,2 D,,2 | !fermata!D,,6 |] %48
V:3
 x6 | x6 | x6 | x6 | x6 | x6 | x6 | x6 | x6 | x6 | A2 z4 | A2 z4 | x6 | x6 | x6 | x6 | x6 | x6 | %18
 x6 | x6 | A2 z4 | x6 | x6 | x6 | x6 | x6 | x6 | x6 | x6 | x6 | x6 | x6 | x6 | x6 | x6 | x6 | x6 | %37
 x6 | x6 | x6 | x6 | x6 | !arpeggio![Ae]3 z [Ad]2 | z2 ^c4 | x6 | x6 | x6 | D/4^C/4D3/2- D4 |] %48
V:4
 x6 | x6 | x6 | x6 | x6 | x6 | x6 | x6 | x6 | x6 | x6 | x6 | x6 | x6 | x6 | x6 | x6 | x6 | x6 | %19
 x6 | x6 | x6 | x6 | x6 | x6 | x6 | x6 | x6 | x6 | x6 | x6 | x6 | x6 | x6 | x6 | x6 | x6 | x6 | %38
 x6 | x6 | x6 | x6 | x6 | x6 | x6 | x6 | x6 | A,6 |] %48

